hero/outline/tag.svg

<svg width="24" height="24" viewBox="0 0 24 24" fill="none" xmlns="http://www.w3.org/2000/svg">
<path d="M9.56802 3H5.25C4.00736 3 3 4.00736 3 5.25V9.56802C3 10.1648 3.23705 10.7371 3.65901 11.159L13.2401 20.7401C13.9388 21.4388 15.0199 21.6117 15.8465 21.0705C17.9271 19.7084 19.7084 17.9271 21.0705 15.8465C21.6117 15.0199 21.4388 13.9388 20.7401 13.2401L11.159 3.65901C10.7371 3.23705 10.1648 3 9.56802 3Z" stroke="#0F172A" stroke-width="1.5" stroke-linecap="round" stroke-linejoin="round"/>
<path d="M6 6H6.0075V6.0075H6V6Z" stroke="#0F172A" stroke-width="1.5" stroke-linecap="round" stroke-linejoin="round"/>
</svg>

<svg viewBox="0 0 24 24" xmlns="http://www.w3.org/2000/svg"><g stroke-linecap="round" stroke-width="1.5" stroke="#000" fill="none" stroke-linejoin="round"><path d="M9.568 3H5.25v0C4 3 3 4 3 5.25v4.318c0 .59.23 1.17.65 1.59l9.581 9.581c.69.69 1.78.87 2.6.33h0c2.08-1.37 3.85-3.15 5.22-5.23 .54-.827.36-1.91-.33-2.61l-9.58-9.58v0c-.43-.43-1-.67-1.6-.66Z"/><path d="M6 6h0v0h-.01v-.01Z"/></g></svg>
